findly-builder/apps/searchassist/src/assets/icons/carrot-up.svg

<svg width="10" height="6" viewBox="0 0 10 6" fill="none" xmlns="http://www.w3.org/2000/svg">
<path fill-rule="evenodd" clip-rule="evenodd" d="M5.31882 4.8808C5.1531 5.04607 4.89046 5.05579 4.71334 4.90997L4.68117 4.8808L0.757061 1.14261C0.58098 0.967006 0.58098 0.682301 0.757061 0.506701C0.922785 0.341429 1.18542 0.331707 1.36255 0.477535L1.39471 0.506701L5 3.92687L8.60529 0.506701C8.77101 0.341429 9.03365 0.331707 9.21077 0.477535L9.24294 0.506701C9.40866 0.671972 9.41841 0.933889 9.27218 1.11053L9.24294 1.14261L5.31882 4.8808Z" fill="#202124"/>
</svg>

<svg width="10" height="6" fill="none" xmlns="http://www.w3.org/2000/svg"><path fill-rule="evenodd" clip-rule="evenodd" d="M5.319 4.88a.452.452 0 0 1-.606.03l-.032-.03L.757 1.144a.449.449 0 0 1 0-.636.452.452 0 0 1 .606-.03l.032.03L5 3.927 8.605.507a.452.452 0 0 1 .606-.03l.032.03a.449.449 0 0 1 .03.604l-.03.032L5.319 4.88Z" fill="#202124"/></svg>
